X:1

T:Whiskey You’re the Devil

M:C|

L:1/8

R:Hornpipe

S:O’Neill – Dance Music of Ireland: 1001 Gems (1907), No. 866

Z:AK/Fiddler’s Companion

K:A

E2 | A>cB>c A>FF>E | A>ce>a f2 (3efg | a>gf>e f>ec>A | B>cB>A F3E |

A>cB>c A>FF>E | A>ce>a f2 (3efg | a>gf>e f>ec>A | B2A2A2 :|

|: c>d | e>ag>a f>ec>e | e>ag>a f2 (3efg | a>gf>e f>ec>A | B>cB>A F2E2 |

A>cB>c A>FF>E | A>ce>a f2 (3efg | a>gf>e f>ec>A | B2A2A2 :|

 


WHISTLE AND I'LL COME TO YOU MY LAD. Scottish (originally Irish), Slow Jig. G Minor. Standard tuning. AABB. A 4/4 time version of the tune is "The Fife Hunt." The air was reputedly composed by fiddler John Bruce, born between 1700 and 1720 in Braemar. He took part in the rising of 1745, but was imprisoned in Edinburgh Castle when Bonnie Prince Charlie was defeated, though his skill at the fiddle supposedly helped to mitigate his sentence. He later lived at Dumfries and there became acquainted with Robert Burns before his death in 1785. Gow (1806) identifies the tune as “Irish.” The British Minstrel and Musical and Literary Miscellany, vol. II, 1843‑45, pg. 169. Carlin (The Gow Collection), 1986; No. 380. Crosby (The Caledonian Musical Repository), 1811; pg. 144. Crosby (The Irish Musical Repository), 1808; pg. 284. Goulding (Instructions for the Fife), 1790; pg. 30. Gow (Complete Repository), Part 3, 1806, pg. 12. Graham, pgs. 244‑245. Johnson (The Scots Musical Museum), 1787‑1803; vol. II, No. 106 and vol. VI, No. 560. Kerr (Merry Melodies), vol. 1, pg. 33. Moffat (The Minstrelsy of Ireland), 1897; pg. 280. Murphy (Collection of Irish Airs...), 1809 or 1820; pg. 18. O'Farrell, 1797‑1800; pg. 19. O'Neill (Music of Ireland: 1850 Melodies), 1903; No. 391. Shield (The Poor Soldiers), 1782?; pgs. 3‑5, 8.

